X:1
T:Title
%%score { ( 1 3 5 ) | ( 2 4 ) }
L:1/8
Q:1/4=96
M:4/4
K:C
V:1 treble nm="Grand Piano"
V:3 treble 
V:5 treble 
V:2 bass 
V:4 bass 
V:1
 [EG]3 [FA] [EG][CE][Ec]G | B4 A2 z2 | B3 B FF A>A | [EG]6 z2 | [Ec]3 [DB] [Fd][Ec][Ec][CG] | %5
w: Charles~H.~Gabriel * * * * *|||||
 [CGB]6 [CFA]2 | [C^FA]3 [B,FB] [Fc][EFc][DFB][CDA] | G2- [EG-]2 [FG]4 | [Ge]4 c4 | [FA]4 c4 | %10
w: |||||
 z2 z d edBG | [Ec-]2 c4 z2 | [Ge]4 z4 | [GB]4 [FA]2 z2 | z2 z c cBAB | c2- [Fc-][Fc-] [Ec]4 |] %16
w: ||||||
V:2
 [C,C]3 [C,C] [C,C][C,G,][C,G,][E,C] | [F,CG]4 [F,CF]2 z2 | %2
 [G,F]3 [G,DF] [G,B,D][G,B,D] [G,B,F]>[G,B,F] | [C,C]6 z2 | [C,G,]3 [C,G,] [C,G,][C,G,][C,G,]E, | %5
 F,6 F,2 | D,3 D, [D,A,]D,D,D, | z2 C2 D4 | [C,C]C,C,C, [C,G,]2 E,2 | F,F,F,F, F,2 A,2 | %10
 [G,B,]2 z[K:treble] F FFFF | C,C,[C,B,][C,A,] [C,G,]2 z2 | [C,C]2 z F z E z E | F,2 F,2 F,F, z2 | %14
 [G,CE]2 [G,C]2 [G,DF][G,DF][G,DF][G,DF] | [C,C]2 [C,A,][C,A,] [C,G,]4 |] %16
V:3
 x8 | x8 | x8 | x8 | x8 | x8 | x8 | [B,D]2 z2 z4 | z CCC E2 [CG]2 | CCCC [CA]2 [CE]2 | [Fd]4 z4 | %11
 CG,GF E2 z2 | z2 z d [Ec]G[CE]G | C2 C2 CC z2 | G4 z4 | E2 z2 z4 |] %16
V:4
 x8 | x8 | x8 | x8 | x8 | x8 | x8 | G,8 | x8 | x8 | z2 G,2[K:treble] [G,B,]2 [G,B,]2 | x8 | %12
 z2 C,2 [C,C]2 C,2 | x8 | x8 | x8 |] %16
V:5
 x8 | x8 | x8 | x8 | x8 | x8 | x8 | x8 | x8 | x8 | z2 B,2 z4 | x8 | z2 C2 z4 | x8 | z2 E2 z4 | %15
 x8 |] %16

